!!!!SEGMENT: pl-wn--sd-xvi-o-238_anonim--kancjonal-zamoyskich-spiewanie-kosciola-krzyzu-swiety-i-chwalebny.krn
!!!cenid: 15xx:796
!!!COM: Anonim
!!!COM-rismid: pe30004985
!!!CDT:
!!!CNT:
!!!OTL: Kancjonał Zamoyskich
!!!PDT: 1558
!!!AGN:
!!!SMS-siglum: PL-Wn
!!!SMS-shelfmark: SD XVI.O.238
!!!SMS-shelfwork: W
!!!SMS-variant:
!!!SMS-altvar:
!!!NIFC-rismid: 990072525
!!!URL-scan: https://polona.pl/item/spiewanie-kosciola-s-krzescianskiego-o-swietym-krzyzu-jako-te-panskiego-zwyciestwa,MTE3MDU2MQ/3/#info:metadata
!!!ONB-nifc: UWAGA: proszę zapisywać tylko teksty występujące bezpośrednio pod nutami
!!!key: d:dor
**kern	**text	**kern	**text	**kern	**text	**kern	**text
*part4	*part4	*part3	*part3	*part2	*part2	*part1	*part1
*staff4	*staff4	*staff3	*staff3	*staff2	*staff2	*staff1	*staff1
*I"BASVS.	*	*I"TENOR.	*	*I"ALT.	*	*I"CANTVS.	*
*I'B	*	*I'T	*	*I'A	*	*I'S	*
*Ibass	*	*Itenor	*	*Ialto	*	*Isoprn	*
*ICvox	*	*ICvox	*	*ICvox	*	*ICvox	*
*clefF4	*	*clefC4	*	*clefC3	*	*clefC1	*
*k[]	*	*k[]	*	*k[]	*	*k[]	*
*d:dor	*	*d:dor	*	*d:dor	*	*d:dor	*
*M2/1	*	*M2/1	*	*M2/1	*	*M2/1	*
*met(C|)	*	*met(C|)	*	*met(C|)	*	*met(C|)	*
=1-	=1-	=1-	=1-	=1-	=1-	=1-	=1-
0D	Krǯy-	0D	Krǯy-	0A	Krʒy-	0d	Krʒy-
=2-	=2-	=2-	=2-	=2-	=2-	=2-	=2-
*	*	*	*	*lig	*	*	*
1C	.	1E	.	1G	.	1g	.
*	*	*lig	*	*	*	*lig	*
1C	-ǯu	1G	-ʒu	1c	.	1e	-ǯu
*	*	*	*	*Xlig	*	*	*
=3-	=3-	=3-	=3-	=3-	=3-	=3-	=3-
0D	ſwię-	1A	.	2A/	-ʒu	1f	.
.	.	.	.	2.A/	ſwię-	.	.
*	*	*Xlig	*	*	*	*Xlig	*
.	.	1A	ſwię-	.	.	1f	ſwię-
.	.	.	.	4G/	.	.	.
.	.	.	.	4A/	.	.	.
.	.	.	.	4B/	.	.	.
=4-	=4-	=4-	=4-	=4-	=4-	=4-	=4-
0C	-ty	0G	-ty	0c	-ty	0e	-ty
=5-	=5-	=5-	=5-	=5-	=5-	=5-	=5-
0F	i	0A	y	1.c	y	0a	y
.	.	.	.	2d\	.	.	.
=6-	=6-	=6-	=6-	=6-	=6-	=6-	=6-
1E	chwá-	1B	chwá-	1e	.	1g	.
*	*	*	*	*	*	*lig	*
1AA	.	1c	.	1e	chwa-	1a	chwá-
=7-	=7-	=7-	=7-	=7-	=7-	=7-	=7-
1E	-le-	1B	-le-	1c	.	1b	.
*	*	*	*	*	*	*Xlig	*
1F	.	1A	.	1d	-le-	1cc	-le-
=8-	=8-	=8-	=8-	=8-	=8-	=8-	=8-
0E	-bny.	0G;	-bny/	0e	-bny.	0bl	-bny._etc.
*custos:F	*	*custos:c	*	*	*	*custos:a	*
!LO:LB:g=original	!	!LO:LB:g=original	!	!LO:LB:g=original	!	!LO:LB:g=original	!
=9-	=9-	=9-	=9-	=9-	=9-	=9-	=9-
1.F	.	1c	.	1c	.	1a	.
.	.	1c	.	2A/	.	1a	.
2E\	.	.	.	1c\	.	.	.
=10-	=10-	=10-	=10-	=10-	=10-	=10-	=10-
*	*	*	*	*	*	*lig	*
1D	.	1d	.	.	.	1f	.
.	.	.	.	2B/	.	.	.
1C	.	1e	.	1c	.	1g	.
*	*	*	*	*	*	*Xlig	*
=11-	=11-	=11-	=11-	=11-	=11-	=11-	=11-
*	*	*lig	*	*	*	*	*
1F	.	1A	.	1c	.	1a	.
2G\	.	1G	.	2B/	.	1b	.
2E\	.	.	.	1e\	.	.	.
*	*	*Xlig	*	*	*	*	*
=12-	=12-	=12-	=12-	=12-	=12-	=12-	=12-
2A\	.	1c	.	.	.	2cc\	.
2F\	.	.	.	4c/	.	1a	.
.	.	.	.	4d\	.	.	.
1E	.	1B	.	1e	.	.	.
.	.	.	.	.	.	2g/	.
=13-	=13-	=13-	=13-	=13-	=13-	=13-	=13-
!LO:TX:t=P:problem:zbędne powtórzenie w A	!	!LO:TX:t=P:problem:zbędne powtórzenie w A	!	!LO:TX:t=P:problem:zbędne powtórzenie	!	!LO:TX:t=P:problem:zbędne powtórzenie w A	!
1ryy	.	1ryy	.	1e	.	1ryy	.
!LO:N:vis=0	!	!LO:N:vis=0	!	!LO:N:vis=0	!	!LO:N:vis=0	!
1AA;	.	1A;	.	1c	.	1a	.
*custos:A	*	*custos:A	*	*	*	*custos:cc	*
!LO:LB:g=original	!	!LO:LB:g=original	!	!LO:LB:g=original	!	!LO:LB:g=original	!
=14-	=14-	=14-	=14-	=14-	=14-	=14-	=14-
2.A\	.	1A	.	1e	.	1cc	.
4G\	.	.	.	.	.	.	.
*	*	*lig	*	*	*	*	*
!LO:TX:t=P:problem:brak półnuty 2F w źródle	!	!	!	!	!	!	!
2ryy	.	1A	.	1c	.	1cc	.
2E\	.	.	.	.	.	.	.
=15-	=15-	=15-	=15-	=15-	=15-	=15-	=15-
1F	.	1c	.	2f\	.	1a	.
.	.	.	.	1c	.	.	.
*	*	*Xlig	*	*	*	*	*
1G	.	1G	.	.	.	1d	.
.	.	.	.	2B/	.	.	.
=16-	=16-	=16-	=16-	=16-	=16-	=16-	=16-
0C	.	0G	.	0c	.	0e	.
=17-	=17-	=17-	=17-	=17-	=17-	=17-	=17-
1D	.	1A	.	1A	.	1f	.
*lig	*	*lig	*	*	*	*	*
1D	.	1F	.	2A/	.	1a	.
.	.	.	.	1d\	.	.	.
=18-	=18-	=18-	=18-	=18-	=18-	=18-	=18-
*	*	*	*	*	*	*lig	*
1E	.	1E	.	.	.	1g	.
.	.	.	.	2c/	.	.	.
*	*	*Xlig	*	*	*	*	*
*Xlig	*	*lig	*	*	*	*	*
1F	.	1D	.	1d	.	1f	.
*	*	*	*	*	*	*Xlig	*
=19-	=19-	=19-	=19-	=19-	=19-	=19-	=19-
1.C	.	1E	.	1G	.	1.e	.
*	*	*Xlig	*	*lig	*	*	*
*	*	*lig	*	*	*	*	*
.	.	1E	.	1G	.	.	.
4BB/	.	.	.	.	.	4d/	.
4AA/	.	.	.	.	.	4c/	.
=20-	=20-	=20-	=20-	=20-	=20-	=20-	=20-
1D	.	1F	.	1A	.	1d	.
*	*	*Xlig	*	*Xlig	*	*	*
!LO:N:vis=0	!	!LO:N:vis=0	!	!LO:N:vis=0	!	!	!
1AA	.	1E;	.	1A	.	1cl	.
*custos:D	*	*custos:D	*	*	*	*	*
!LO:LB:g=original	!	!LO:LB:g=original	!	!LO:LB:g=original	!	!LO:LB:g=original	!
=21-	=21-	=21-	=21-	=21-	=21-	=21-	=21-
2.D/	.	1D	.	1A	.	1f	.
4C/	.	.	.	.	.	.	.
*	*	*lig	*	*lig	*	*lig	*
1BB	.	1D	.	1d	.	1f	.
=22-	=22-	=22-	=22-	=22-	=22-	=22-	=22-
1AA	.	1A	.	1c	.	1e	.
*	*	*Xlig	*	*Xlig	*	*Xlig	*
*	*	*lig	*	*lig	*	*lig	*
1D	.	1A	.	1A	.	1f	.
=23-	=23-	=23-	=23-	=23-	=23-	=23-	=23-
1E	.	1G	.	1B	.	1g	.
*	*	*Xlig	*	*Xlig	*	*Xlig	*
*	*	*lig	*	*	*	*lig	*
1C	.	1E	.	1c	.	1g	.
=24-	=24-	=24-	=24-	=24-	=24-	=24-	=24-
*lig	*	*	*	*	*	*	*
1D	.	1D	.	1A	.	1f	.
*	*	*Xlig	*	*	*	*Xlig	*
1C	.	1E	.	1G	.	1e	.
*Xlig	*	*	*	*	*	*	*
=25-	=25-	=25-	=25-	=25-	=25-	=25-	=25-
2D/	.	1F	.	2A/	.	2d/	.
2BB/	.	.	.	4F/	.	1d	.
.	.	.	.	4G/	.	.	.
*	*	*	*	*lig	*	*	*
1AA	.	1E	.	1A	.	.	.
.	.	.	.	.	.	2c/	.
=26-	=26-	=26-	=26-	=26-	=26-	=26-	=26-
0D;	.	0Dl;	.	0F	.	0d	.
*	*	*	*	*Xlig	*	*	*
*custos:D	*	*custos:A	*	*custos:d	*	*custos:f	*
!LO:LB:g=original	!	!LO:LB:g=original	!	!LO:LB:g=original	!	!LO:LB:g=original	!
=27-	=27-	=27-	=27-	=27-	=27-	=27-	=27-
1D	.	1A	.	1d	.	1f	.
*	*	*lig	*	*lig	*	*	*
1D	.	1A	.	1d	.	1f	.
=28-	=28-	=28-	=28-	=28-	=28-	=28-	=28-
2.C/	.	1c	.	1.e	.	1.g	.
4D/	.	.	.	.	.	.	.
*	*	*Xlig	*	*	*	*	*
2E\	.	1G	.	.	.	.	.
*	*	*	*	*Xlig	*	*	*
2D/	.	.	.	4d\	.	2a\	.
.	.	.	.	4c/	.	.	.
=29-	=29-	=29-	=29-	=29-	=29-	=29-	=29-
0E	.	0G	.	0B	.	0b	.
=30-	=30-	=30-	=30-	=30-	=30-	=30-	=30-
1.F	.	1A	.	2A/	.	1cc	.
.	.	.	.	2d\	.	.	.
*	*	*lig	*	*	*	*lig	*
.	.	1F	.	2f\	.	1a	.
4E\	.	.	.	1d\	.	.	.
4D/	.	.	.	.	.	.	.
=31-	=31-	=31-	=31-	=31-	=31-	=31-	=31-
1C	.	1E	.	.	.	1g	.
.	.	.	.	2c/	.	.	.
*	*	*Xlig	*	*	*	*Xlig	*
*	*	*lig	*	*	*	*lig	*
1F	.	1D	.	1d	.	1f	.
=32-	=32-	=32-	=32-	=32-	=32-	=32-	=32-
1G	.	1E	.	1B	.	1e	.
*	*	*Xlig	*	*	*	*Xlig	*
*	*	*lig	*	*	*	*lig	*
2E\	.	1E	.	2B/	.	1g	.
2C/	.	.	.	2e\	.	.	.
=33-	=33-	=33-	=33-	=33-	=33-	=33-	=33-
*lig	*	*	*	*lig	*	*	*
1D	.	1F	.	1A	.	1a	.
*	*	*Xlig	*	*	*	*Xlig	*
1E	.	[1El;	.	1B	.	1g	.
*Xlig	*	*	*	*Xlig	*	*	*
=34-	=34-	=34-	=34-	=34-	=34-	=34-	=34-
0C	.	0E]	.	0c	.	0g	.
*custos:D	*	*custos:D	*	*custos:A	*	*	*
!LO:LB:g=original	!	!LO:LB:g=original	!	!LO:LB:g=original	!	!LO:LB:g=original	!
=35-	=35-	=35-	=35-	=35-	=35-	=35-	=35-
1.D	.	1D	.	1A	.	1f	.
*	*	*lig	*	*lig	*	*lig	*
.	.	1D	.	1d	.	1f	.
4C/	.	.	.	.	.	.	.
4BB/	.	.	.	.	.	.	.
=36-	=36-	=36-	=36-	=36-	=36-	=36-	=36-
1AA	.	1A	.	1c	.	1e	.
*	*	*Xlig	*	*Xlig	*	*Xlig	*
*	*	*lig	*	*	*	*	*
1D	.	1A	.	1d	.	1f	.
=37-	=37-	=37-	=37-	=37-	=37-	=37-	=37-
1GG	.	1G	.	4B/	.	1d	.
.	.	.	.	4A/	.	.	.
.	.	.	.	1d	.	.	.
*	*	*Xlig	*	*	*	*	*
*	*	*lig	*	*	*	*	*
1C	.	1E	.	.	.	1g	.
.	.	.	.	2c/	.	.	.
=38-	=38-	=38-	=38-	=38-	=38-	=38-	=38-
1BB	.	1D	.	1d	.	1f	.
*	*	*Xlig	*	*	*	*	*
2AA/	.	1E	.	2c/	.	1e	.
2C/	.	.	.	2G/	.	.	.
=39-	=39-	=39-	=39-	=39-	=39-	=39-	=39-
2D/	.	1F	.	2A/	.	2d/	.
2BB/	.	.	.	4F/	.	1d	.
.	.	.	.	4G/	.	.	.
1AA	.	1E	.	1A	.	.	.
.	.	.	.	.	.	2c/	.
=40-	=40-	=40-	=40-	=40-	=40-	=40-	=40-
*	*	*	*	*lig	*	*	*
0Dl	.	0Dl	.	1A	.	0dl	.
.	.	.	.	1Fl	.	.	.
*	*	*	*	*Xlig	*	*	*
==	==	==	==	==	==	==	==
*-	*-	*-	*-	*-	*-	*-	*-
!!!system-decoration: [(*)]
!!!RDF**kern: l = terminal long
!!!ENC: Berenika Jozajtis
!!!END: 2022-04-30
!!!AIN: 1 alto 1 bass 1 soprn 1 tenor
!!!ENC: Andrzej Kubiczek
!!!END: 2022-05-07
